X: 1
T: HOOP-DE-DOO-DEN-DOO -- JIG
B: Ryan's Mammoth Collection of Fiddle Tunes
R: jig
M: 2/4
L: 1/16
Z: Contributed 20020121135700 by John Chambers jmchambers:rcn.com
K: A
uE2 \
|vA2B2c2d2 | (3efe (3dcB e2a2 | A2B2c2d2 | (3efe (3dcB A2E2 \
| A2B2c2d2 | (3efe (3dcB e2(ef) | =gefd (3"4"eee ez | z"4"uedB A2 |]
(uef) \
|v=gefd (3"4"eee ez | z"4"edB "4"e2("0"ef) \
| =gefd (3"4"eee ez | (3efe (3dcB A2("0"ef) \
| =gefd (3"4"eee ez | z"4"edB "4"e2("0"ef) \
| =gefd (3"4"eee ez | (3"0"efe (3dcB A2 |]
